app/dist/common/images/engagesmart.svg

<svg height="18" viewBox="0 0 18 18" width="18" xmlns="http://www.w3.org/2000/svg"><path d="m0 0h18v18h-18z" fill="#1c2546"/><path d="m13.94 8h-.94c-.05-.52-.6-1-1.52-1-.8 0-1.3.18-1.3.7s.65.59 1.6.8c1.43.35 2.22.85 2.22 1.8 0 .96-1.04 1.7-2.38 1.7a2.53 2.53 0 0 1 -2.62-2.2h.83c0 .56.8 1.2 1.7 1.2.89 0 1.47-.09 1.47-.6 0-.53-.39-.64-1.38-.9-1.98-.48-2.42-1.1-2.42-1.9 0-.77.84-1.6 2.28-1.6 1.78 0 2.4 1.4 2.46 2z" fill="#fff"/><path d="m8 6h-4v6h4v-1h-3v-1.5h2v-1h-2v-1.5h3z" fill="#4977bd"/></svg>

<!-- by TradingView --><svg width="18" height="18" viewBox="0 0 18 18" xmlns="http://www.w3.org/2000/svg"><path fill="#1C2546" d="M0 0h18v18H0z"/><path d="M13.94 8H13c-.05-.52-.6-1-1.52-1-.8 0-1.3.18-1.3.7s.65.59 1.6.8c1.43.35 2.22.85 2.22 1.8 0 .96-1.04 1.7-2.38 1.7A2.53 2.53 0 0 1 9 9.8h.83c0 .56.8 1.2 1.7 1.2.89 0 1.47-.09 1.47-.6 0-.53-.39-.64-1.38-.9C9.64 9.02 9.2 8.4 9.2 7.6c0-.77.84-1.6 2.28-1.6 1.78 0 2.4 1.4 2.46 2Z" fill="#fff"/><path d="M8 6H4v6h4v-1H5V9.5h2v-1H5V7h3V6Z" fill="#4977BD"/></svg>
